X: 19
M:2/4
L:1/16
K:D
uA2|e>fe>d c>AB>c|d>Af>A d>Af>A|e>fe>d c>AB>c|.d2.f2 .a2.A2|
e>ge>d c>AB>c|d>Af>A d>Af>A|e>fe>d c>AB>c|d2f2d2:|
|:uA2|A>Bc>d e>fg>e|f>ff>f f>fe>d|c>cc>c c>AB>c|.d2d>f .a2.A2|


